!!!id: bhatk3191s
!!!vol: 3
!!!page: 191
!!!sthayee: Balamure more manake
!!!raag: bihag
!!!taal: teentaal
!!!tempo: madhyalaya
**kern
!!data: // >MG  M  P  S'/  [N  -  P]  -/  -  -  >DP  P/  >PG  M  G  -/
==1
fq
4e
4f
4g
4cc
=
2bH
[2gh
=
2g]
aq
4g
4g
=
gq
4e
4f
2e
!!data: // >PN  >DN  %P  -/  -  -  >PG  M/  P  -  >PG  M/  [G  -  S]  -/
==2
gq
4b
aq
4b
[2gS
=
2g]
gq
4e
4f
=
2g
gq
4e
4f
=
2eH
2ch
!!data: // >N,P,  -  N,  N,/  S  -  >MG  M/  P  -  >PG  M/  G  GR  S  -/
==3
Bq
2G
4B
4B
=
2c
fq
4e
4f
=
2g
gq
4e
4f
=
4e
8e
8d
2c
==
*-
